X: 1
T: Isaac's Maggot
M: 3/4
L: 1/8
R: waltz
K: Dmaj
a2  f2  e2 | d/e/ f  ed  cB | Ad  dc  B2| Be  ed  cA |
a2  f2  e2 | d/e/ f  ed  cB | Ad  dc  B g/f/ |  ed  ec  d2|
|: FA  AB  A2 | FA  AA  B/c/ d | FA  AB  A2 | FA  AA  B/c/ d |
a g/a/ b a/g/  a g/a/ | b/a/g/f/ g/f/e/d/  cA | a g/a/  b a/g/  a g/a/| b/a/g/f/  e/f/g/a/  fd |
f2 g2  ad | d/e/ f  ed  cA | f e/f/  g f/g/  aA | Ad  dc  d2 :|
